assets/svg/volume-down.svg

<svg width="50px" height="50px" viewBox="0 0 50 50" version="1.1" xmlns="http://www.w3.org/2000/svg" xmlns:xlink="http://www.w3.org/1999/xlink">
    <defs>
        <path d="M37.292212,32.6492757 C37.0472982,32.7719126 36.7751717,32.8037073 36.5347933,32.8037073 C35.4689646,32.8037073 34.589089,31.9497913 34.589089,30.8551436 C34.589089,28.5432114 38.1131269,29.1791063 38.1131269,25.5 C38.1131269,21.8163516 34.589089,22.4567886 34.589089,20.1448564 C34.589089,19.0502087 35.4689646,18.1962927 36.5347933,18.1962927 C36.7751717,18.1962927 37.0472982,18.2280874 37.292212,18.3507243 C40.1450045,19.4771667 42,22.4567886 42,25.5 C42,28.5432114 40.1450045,31.4955807 37.292212,32.6492757 Z M30.3348451,42.0514363 C30.3348451,43.1142892 29.4504341,44 28.3891409,44 C27.8721006,44 27.3868083,43.786521 27.023973,43.4186104 L16.9054037,33.2897127 L8.94570429,33.2897127 C7.88441104,33.2897127 7,32.404002 7,31.341149 L7,19.658851 C7,18.5914559 7.88441104,17.7102873 8.94570429,17.7102873 L16.9054037,17.7102873 L27.023973,7.57684753 C27.3868083,7.21347901 27.8721006,7 28.3891409,7 C29.4504341,7 30.3348451,7.88116867 30.3348451,8.94856371 L30.3348451,42.0514363 Z" id="path-1"></path>
    </defs>
</svg>

<svg width="50" height="50" xmlns="http://www.w3.org/2000/svg"><defs><path d="M37.292 32.65a1.691 1.691 0 01-.757.154 1.94 1.94 0 01-1.946-1.949c0-2.312 3.524-1.676 3.524-5.355 0-3.684-3.524-3.043-3.524-5.355a1.94 1.94 0 011.946-1.949c.24 0 .512.032.757.155C40.145 19.477 42 22.457 42 25.5s-1.855 5.996-4.708 7.15zm-6.957 9.401A1.964 1.964 0 0128.389 44a1.915 1.915 0 01-1.365-.581l-10.119-10.13h-7.96A1.964 1.964 0 017 31.342V19.66c0-1.068.884-1.949 1.946-1.949h7.96L27.023 7.577A1.929 1.929 0 0128.389 7c1.061 0 1.946.881 1.946 1.949V42.05z" id="path-1"/></defs></svg>
